X:560
T: All the Way to Galway
S: "Roche Collection of Traditional Irish Music" [III/34/109]
L: 1/8
M: 4/4
R: hornpipe
K: Ddor
A | defd cAAc | BGGB cAAc | defd cAAe | fdec d3A |
defd cAAc | BGGB cAAc | defd cAAB | cAGE D2-DG ||
ABAG ABcA | GAGF EFGE | ABAG ABcA | fdec d2 DG |
ABAG ABcA | GAGF EFGE | ABAG AddB | cAGE D4 |]
